X:1
T:Mother's Delight #1
S:Paul O'Shaughnessy
Z:Juergen.Gier@post.rwth-aachen.de
M:C|
L:1/8
K:DDor
DE|F2FD ~G3E|FEFA GECE|Ddd^c defe|(3ded cd ABcA|\
Addc AGAB|cBcG ECCE|Dddc A^GAB|cAGE ED::DE|\
FAdA FDDF|EGcG ECCE|FAdA FDDF|EDCE D^CDE|\
FAdA FDDF|EGcG ECCE|FAGE FEDC|A,FEF D^C:|
